X: 12
M:2/4
L:1/16
K:G
((3uDEF)|vG2vDD D2B2|cBAc B3uA|GFGA G2B2|AGAB vA2((3uDEF)|
|:uD2|GBdB GBdB|cBAc B3uA|.G2vGG G2B2|AGAB c2A2|


